X: 426
T: Birer Birer Geçiyor
C: Ömer Sami Güpgüp
O: Turkey
F: http://compmusic.upf.edu/node/140
N: hicazkar--sarki--duyek--birer_birer--omer_sami_gupgup
N: makam= hicazkar
N: form= sarki
N: usul= duyek = 8/4
M: 8/4
L: 1/16
K: C _1/4B _7/8e _7/8A ^f
Q: 1/4=144
%%MIDI tuningsystem comma53
f2 g4 a2 g4 f2 g2  | e8 ed cd e4  | z2 d4 e2 f4 g4  | \
w:  Bi rer  bi rer  ge çi  |  yor  SAZ  |  göz le rim den   | 
e4 ba gf g8  | 
w:  *  a *  nı *  lar   | 
z2 g4 c'2 b2 a2 g2 f2  | e4 ba gf g8  | \
w:  göz le rim *  den   |  *  a *  nı *  lar    | 
gg ga .f4 ff fg .e4  | 
w:  SAZ  | 
c2 e2 d2 c2 BA AG G4  | f2 g4 a2 g4 f2 g2  | \
w:   |  Bi rer  bi rer  ge çi  | 
e8 ed cd e4  | 
w:  yor  SAZ  | 
z2 d4 e2 f4 g4  | e4 ba gf g8  | z2 g4 c'2 b2 a2 g2 f2  | \
w:  göz le rim den   |  *  a *  nı *  lar   |  göz le rim *  den   | 
e4 ba gf g8  | 
w:  *  a *  nı *  lar    | 
gg ga .f4 ff fg .e4  | e2 c'2 b2 a2 gf ef g4  | \
w:  SAZ  |   | 
c'4 c'4 c'2 b2 a2 g2  | 
w:  Kaç  cilt_ ol *  *  du   | 
z4 f2 g2 a4 fg a2  | g2 g4 c'2 b2 a2 g2 f2  | \
w:  bi le mem  SAZ  |  ka pat tı ğım   | 
z2 gf e2 ed d8  | 
w:  say *  *  fa *  lar   | 
c2 e2 d2 c2 Bc _3/4d6  | z2 cB A2 AG G8  | \
w:  ka pat *  tı ğım   |  say *  *  fa *  lar    | 
gg ga .f4 ff fg .e4  | 
w:  SAZ  | 
e2 c'2 b2 a2 gf ef g4  | c'4 c'4 c'2 b2 a2 g2  | \
w:   |  Kaç  cilt_ ol *  *  du   | 
z4 f2 g2 a4 fg a2  | 
w:  bi le mem  SAZ  | 
g2 g4 c'2 b2 a2 g2 f2  | z2 gf e2 ed d8  | \
w:  ka pat tı ğım   |  say *  *  fa *  lar   | 
c2 e2 d2 c2 Bc _3/4d6  | 
w:  ka pat *  tı ğım   | 
z2 cB A2 AG G8  | gg ga .f4 ff fg .e4  | \
w:  say *  *  fa *  lar    |  SAZ  | 
c2 e2 d2 c2 dc Bc d4  | 
w:   | 
c2 d6 d8  | =f2 _1/4e2 gf g2 d8  | z2 c4 d2 _B2 c4 B2  | \
w:  Ne  bit mez   |  ha zî ney *  *  miş   |  söy le di ğin   | 
_B2 A2 A2 G2 G4 de fg  | 
w:  ya lan *  *  lar  SAZ  | 
z2 g4 c'2 b2 a2 g2 f2  | g2 gf e2 f2 g8  | \
w:  söy le di ğin   |  ya lan *  *  *  lar    | 
gg ga .f4 ff fg .e4  | 
w:  SAZ  | 
e2 c'2 b2 a2 gf e^3/4f g4  | c'2 c'4 c'2 c'2 b2 a2 g2  | \
w:   |  Ha tır la mak   | 
z2 f4 g2 a4 fg a2  | 
w:  is te mem  SAZ  | 
g2 g4 c'2 b2 a2 g2 f2  | g2 gf e2 d2 d8  | \
w:  da ha  ne ler   |  ne ler  *  *  *  var   | 
c2 e2 d2 c2 Bc _3/4d6  | c2 cB A3G G8  | 
w:  da ha  *  ne ler   |  ne ler  *  *  *  var    | 
gg ga .f4 ff fg .e4  | e2 c'2 b2 a2 gf ef g4  | \
w:  SAZ  |   | 
c'2 c'4 c'2 c'2 b2 a2 g2  | 
w:  Ha tır la mak   | 
z2 f4 g2 a4 fg a2  | g2 g4 c'2 b2 a2 g2 f2  | \
w:  is te mem  SAZ  |  da ha  ne ler   | 
g2 gf e2 d2 d8  | c2 e2 d2 c2 Bc _3/4d6  | 
w:  ne ler  *  *  *  var   |  da ha  *  ne ler   | 
c2 cB A3G G8  | gg ga .f4 ff fg .e4  | \
w:  ne ler  *  *  *  var    |  SAZ  | 
c2 e2 d2 c2 BA AG G4  | 
w:   | 
|


